dist/svg/static/car-search-small.svg

<svg xmlns="http://www.w3.org/2000/svg" width="24" height="24" viewBox="0 0 24 24"><g fill="none" stroke="currentColor" stroke-miterlimit="10"><path d="M23 9.5h-2.429M.633 13.326A18.73 18.73 0 0 0 .5 15.76v4.758a1.07 1.07 0 0 0 1.077.982H4.5v-2H12m5 0h2.5v2h2.923a1.07 1.07 0 0 0 1.077-.982V15.76c0-3.77-.7-4.167-.7-4.167L21.335 10.5a9.718 9.718 0 0 1-1.593-2.531A2.473 2.473 0 0 0 17.617 6.5H15m-4 0H6.383a2.473 2.473 0 0 0-2.125 1.469 11.233 11.233 0 0 1-1.31 2.197"/><path d="M16.712 22.766l-6.095-9.268M13.5 7.95a6.281 6.281 0 0 1-6.448 6.55A6.624 6.624 0 0 1 .5 7.95 6.538 6.538 0 0 1 7.052 1.5 6.45 6.45 0 0 1 13.5 7.95z"/></g></svg>

<?xml version="1.0" encoding="UTF-8" standalone="no"?>
<svg width="24px" height="24px" viewBox="0 0 24 24" version="1.1" xmlns="http://www.w3.org/2000/svg" xmlns:xlink="http://www.w3.org/1999/xlink">
    <!-- Generator: sketchtool 46.2 (44496) - http://www.bohemiancoding.com/sketch -->
    <title>car-search-small</title>
    <desc>Created with sketchtool.</desc>
    <defs></defs>
    <g id="icons-published" stroke="none" stroke-width="1" fill="none" fill-rule="evenodd">
        <g id="briefing" transform="translate(-2083.000000, -282.000000)"></g>
        <g id="car-search-small" stroke="#000000">
            <path d="M23,9.5 L20.6,9.5 M0.6,13.3 C0.5,14.1 0.5,14.9 0.5,15.7 L0.5,20.5 C0.5,21.1 1,21.5 1.6,21.5 L4.5,21.5 L4.5,19.5 L12,19.5 M17,19.5 L19.5,19.5 L19.5,21.5 L22.4,21.5 C23,21.5 23.4,21.1 23.5,20.5 L23.5,15.7 C23.5,11.9 22.8,11.5 22.8,11.5 L21.3,10.4 C20.6,9.6 20.1,8.8 19.7,7.9 C19.3,7 18.5,6.5 17.6,6.4 L15,6.4 M11,6.5 L6.4,6.5 C5.5,6.6 4.6,7.1 4.3,8 C3.9,8.8 3.5,9.5 3,10.2" id="Shape"></path>
            <path d="M16.7,22.8 L10.6,13.5 L16.7,22.8 Z M13.5,7.9 C13.6,11.4 11,14.3 7.5,14.4 C7.4,14.4 7.2,14.4 7.1,14.4 C3.5,14.4 0.6,11.5 0.5,7.8 C0.5,4.2 3.5,1.3 7.1,1.4 C10.6,1.5 13.5,4.4 13.5,7.9 Z" id="Shape"></path>
        </g>
    </g>
</svg>
